small/extra/apps/standard/dconf-editor.svg

<?xml version="1.0" encoding="UTF-8" standalone="no"?>
<!-- Created with Inkscape (http://www.inkscape.org/) -->

<svg
   xmlns:dc="http://purl.org/dc/elements/1.1/"
   xmlns:cc="http://creativecommons.org/ns#"
   xmlns:rdf="http://www.w3.org/1999/02/22-rdf-syntax-ns#"
   xmlns:svg="http://www.w3.org/2000/svg"
   xmlns="http://www.w3.org/2000/svg"
   xmlns:sodipodi="http://sodipodi.sourceforge.net/DTD/sodipodi-0.dtd"
   xmlns:inkscape="http://www.inkscape.org/namespaces/inkscape"
   version="1.1"
   width="100%"
   height="100%"
   viewBox="0 0 512 512"
   id="svg2"
   inkscape:version="0.91+devel r13804 custom"
   sodipodi:docname="dconf-editor.svg">
  <sodipodi:namedview
     pagecolor="#ffffff"
     bordercolor="#666666"
     borderopacity="1"
     objecttolerance="10"
     gridtolerance="10"
     guidetolerance="10"
     inkscape:pageopacity="0"
     inkscape:pageshadow="2"
     inkscape:window-width="1366"
     inkscape:window-height="709"
     id="namedview122"
     showgrid="false"
     inkscape:zoom="0.4609375"
     inkscape:cx="235.23251"
     inkscape:cy="234.46928"
     inkscape:window-x="-2"
     inkscape:window-y="-3"
     inkscape:window-maximized="1"
     inkscape:current-layer="svg2" />
  <metadata
     id="metadata241">
    <rdf:RDF>
      <cc:Work
         rdf:about="">
        <dc:format>image/svg+xml</dc:format>
        <dc:type
           rdf:resource="http://purl.org/dc/dcmitype/StillImage" />
        <dc:title></dc:title>
      </cc:Work>
    </rdf:RDF>
  </metadata>
  <defs
     id="defs4" />
  <text
     x="189.84"
     y="218.89999"
     id="text11"
     style="font-size:129.22999573px;line-height:125%;letter-spacing:0;word-spacing:0;font-family:Gentium Book Basic">
    <tspan
       x="189.84"
       y="218.89999"
       id="tspan13" />
  </text>
  <text
     x="244.39"
     y="529.23999"
     transform="scale(4.0128,0.2492)"
     id="text15"
     style="font-size:46.95399857px;text-anchor:middle;font-family:Arial" />
  <text
     x="771.10999"
     y="138.89999"
     id="text17"
     style="font-size:129.22999573px;line-height:125%;letter-spacing:0;word-spacing:0;font-family:Gentium Book Basic">
    <tspan
       x="771.10999"
       y="138.89999"
       id="tspan19" />
  </text>
  <text
     x="389.23999"
     y="208.22"
     transform="scale(4.0128,0.2492)"
     id="text21"
     style="font-size:46.95399857px;text-anchor:middle;font-family:Arial" />
  <text
     x="-300.47"
     y="-42.360001"
     id="text23"
     style="font-size:129.22999573px;line-height:125%;letter-spacing:0;word-spacing:0;font-family:Gentium Book Basic">
    <tspan
       x="-300.47"
       y="-42.360001"
       id="tspan25" />
  </text>
  <text
     x="122.2"
     y="-519.14001"
     transform="scale(4.0128,0.2492)"
     id="text27"
     style="font-size:46.95399857px;text-anchor:middle;font-family:Arial" />
  <text
     x="797.58002"
     y="-258.82999"
     id="text29"
     style="font-size:129.22999573px;line-height:125%;letter-spacing:0;word-spacing:0;font-family:Gentium Book Basic">
    <tspan
       x="797.58002"
       y="-258.82999"
       id="tspan31" />
  </text>
  <text
     x="395.84"
     y="-1387.8101"
     transform="scale(4.0128,0.2492)"
     id="text33"
     style="font-size:46.95399857px;text-anchor:middle;font-family:Arial" />
  <text
     x="1378.85"
     y="-338.84"
     id="text35"
     style="font-size:129.22999573px;line-height:125%;letter-spacing:0;word-spacing:0;font-family:Gentium Book Basic">
    <tspan
       x="1378.85"
       y="-338.84"
       id="tspan37" />
  </text>
  <text
     x="540.69"
     y="-1708.84"
     transform="scale(4.0128,0.2492)"
     id="text39"
     style="font-size:46.95399857px;text-anchor:middle;font-family:Arial" />
  <text
     x="989.72998"
     y="-811.23999"
     id="text41"
     style="font-size:129.22999573px;line-height:125%;letter-spacing:0;word-spacing:0;font-family:Gentium Book Basic">
    <tspan
       x="989.72998"
       y="-811.23999"
       id="tspan43" />
  </text>
  <text
     x="443.72"
     y="-3604.5"
     transform="scale(4.0128,0.2492)"
     id="text45"
     style="font-size:46.95399857px;text-anchor:middle;font-family:Arial" />
  <text
     x="1570.99"
     y="-891.23999"
     id="text47"
     style="font-size:129.22999573px;line-height:125%;letter-spacing:0;word-spacing:0;font-family:Gentium Book Basic">
    <tspan
       x="1570.99"
       y="-891.23999"
       id="tspan49" />
  </text>
  <text
     x="588.57001"
     y="-3925.52"
     transform="scale(4.0128,0.2492)"
     id="text51"
     style="font-size:46.95399857px;text-anchor:middle;font-family:Arial" />
  <text
     x="-261.81"
     y="523.47998"
     id="text53"
     style="font-size:208.33000183px;line-height:125%;letter-spacing:0;word-spacing:0;font-family:Gentium Book Basic">
    <tspan
       x="-261.81"
       y="523.47998"
       id="tspan55" />
  </text>
  <text
     sodipodi:linespacing="125%"
     x="88.589996"
     y="179.00999"
     id="text11-2"
     style="font-size:129.22999573px;line-height:125%;font-family:'Gentium Book Basic';letter-spacing:0;word-spacing:0">
    <tspan
       x="88.589996"
       y="179.00999"
       id="tspan13-7" />
  </text>
  <text
     x="219.15887"
     y="369.18811"
     transform="scale(4.0128205,0.24920128)"
     id="text15-5"
     style="font-size:46.95399857px;font-family:Arial;text-anchor:middle" />
  <text
     sodipodi:linespacing="125%"
     x="669.85999"
     y="99.010002"
     id="text17-2"
     style="font-size:129.22999573px;line-height:125%;font-family:'Gentium Book Basic';letter-spacing:0;word-spacing:0">
    <tspan
       x="669.85999"
       y="99.010002"
       id="tspan19-9" />
  </text>
  <text
     x="364.00815"
     y="48.159752"
     transform="scale(4.0128205,0.24920128)"
     id="text21-5"
     style="font-size:46.95399857px;font-family:Arial;text-anchor:middle" />
  <text
     sodipodi:linespacing="125%"
     x="-401.72"
     y="-82.25"
     id="text23-9"
     style="font-size:129.22999573px;line-height:125%;font-family:'Gentium Book Basic';letter-spacing:0;word-spacing:0">
    <tspan
       x="-401.72"
       y="-82.25"
       id="tspan25-2" />
  </text>
  <text
     x="96.969505"
     y="-679.18652"
     transform="scale(4.0128205,0.24920128)"
     id="text27-3"
     style="font-size:46.95399857px;font-family:Arial;text-anchor:middle" />
  <text
     sodipodi:linespacing="125%"
     x="696.33002"
     y="-298.72"
     id="text29-4"
     style="font-size:129.22999573px;line-height:125%;font-family:'Gentium Book Basic';letter-spacing:0;word-spacing:0">
    <tspan
       x="696.33002"
       y="-298.72"
       id="tspan31-9" />
  </text>
  <text
     x="370.60809"
     y="-1547.8521"
     transform="scale(4.0128205,0.24920128)"
     id="text33-9"
     style="font-size:46.95399857px;font-family:Arial;text-anchor:middle" />
  <text
     sodipodi:linespacing="125%"
     x="1277.6"
     y="-378.73001"
     id="text35-4"
     style="font-size:129.22999573px;line-height:125%;font-family:'Gentium Book Basic';letter-spacing:0;word-spacing:0">
    <tspan
       x="1277.6"
       y="-378.73001"
       id="tspan37-1" />
  </text>
  <text
     x="515.4574"
     y="-1868.8905"
     transform="scale(4.0128205,0.24920128)"
     id="text39-8"
     style="font-size:46.95399857px;font-family:Arial;text-anchor:middle" />
  <text
     sodipodi:linespacing="125%"
     x="888.47998"
     y="-851.13"
     id="text41-3"
     style="font-size:129.22999573px;line-height:125%;font-family:'Gentium Book Basic';letter-spacing:0;word-spacing:0">
    <tspan
       x="888.47998"
       y="-851.13"
       id="tspan43-6" />
  </text>
  <text
     x="418.48785"
     y="-3764.5308"
     transform="scale(4.0128205,0.24920128)"
     id="text45-6"
     style="font-size:46.95399857px;font-family:Arial;text-anchor:middle" />
  <text
     sodipodi:linespacing="125%"
     x="1469.74"
     y="-931.13"
     id="text47-0"
     style="font-size:129.22999573px;line-height:125%;font-family:'Gentium Book Basic';letter-spacing:0;word-spacing:0">
    <tspan
       x="1469.74"
       y="-931.13"
       id="tspan49-7" />
  </text>
  <text
     x="563.33716"
     y="-4085.5591"
     transform="scale(4.0128205,0.24920128)"
     id="text51-6"
     style="font-size:46.95399857px;font-family:Arial;text-anchor:middle" />
  <text
     sodipodi:linespacing="125%"
     x="-363.06"
     y="483.59"
     id="text53-2"
     style="font-size:208.33000183px;line-height:125%;font-family:'Gentium Book Basic';letter-spacing:0;word-spacing:0">
    <tspan
       x="-363.06"
       y="483.59"
       id="tspan55-9" />
  </text>
  <rect
     width="512"
     height="512"
     rx="25.988001"
     x="0"
     y="0"
     id="rect9"
     style="fill:#ae4a32" />
  <text
     sodipodi:linespacing="125%"
     x="7.2849998"
     y="223.5"
     id="text11-0"
     style="font-size:129.22999573px;line-height:125%;font-family:'Gentium Book Basic';letter-spacing:0;word-spacing:0">
    <tspan
       x="7.2849998"
       y="223.5"
       id="tspan13-2" />
  </text>
  <text
     x="198.89897"
     y="547.70721"
     transform="scale(4.0128205,0.24920128)"
     id="text15-3"
     style="font-size:46.95399857px;font-family:Arial;text-anchor:middle" />
  <text
     sodipodi:linespacing="125%"
     x="588.56"
     y="143.5"
     id="text17-1"
     style="font-size:129.22999573px;line-height:125%;font-family:'Gentium Book Basic';letter-spacing:0;word-spacing:0">
    <tspan
       x="588.56"
       y="143.5"
       id="tspan19-4" />
  </text>
  <text
     x="343.74823"
     y="226.67883"
     transform="scale(4.0128205,0.24920128)"
     id="text21-6"
     style="font-size:46.95399857px;font-family:Arial;text-anchor:middle" />
  <text
     sodipodi:linespacing="125%"
     x="-483.01999"
     y="-37.759998"
     id="text23-8"
     style="font-size:129.22999573px;line-height:125%;font-family:'Gentium Book Basic';letter-spacing:0;word-spacing:0">
    <tspan
       x="-483.01999"
       y="-37.759998"
       id="tspan25-9" />
  </text>
  <text
     x="76.70961"
     y="-500.66745"
     transform="scale(4.0128205,0.24920128)"
     id="text27-8"
     style="font-size:46.95399857px;font-family:Arial;text-anchor:middle" />
  <text
     sodipodi:linespacing="125%"
     x="615.03003"
     y="-254.23"
     id="text29-9"
     style="font-size:129.22999573px;line-height:125%;font-family:'Gentium Book Basic';letter-spacing:0;word-spacing:0">
    <tspan
       x="615.03003"
       y="-254.23"
       id="tspan31-6" />
  </text>
  <text
     x="350.34821"
     y="-1369.333"
     transform="scale(4.0128205,0.24920128)"
     id="text33-94"
     style="font-size:46.95399857px;font-family:Arial;text-anchor:middle" />
  <text
     sodipodi:linespacing="125%"
     x="1196.3"
     y="-334.23999"
     id="text35-1"
     style="font-size:129.22999573px;line-height:125%;font-family:'Gentium Book Basic';letter-spacing:0;word-spacing:0">
    <tspan
       x="1196.3"
       y="-334.23999"
       id="tspan37-3" />
  </text>
  <text
     x="495.18747"
     y="-1690.3713"
     transform="scale(4.0128205,0.24920128)"
     id="text39-3"
     style="font-size:46.95399857px;font-family:Arial;text-anchor:middle" />
  <text
     sodipodi:linespacing="125%"
     x="807.17999"
     y="-806.64001"
     id="text41-1"
     style="font-size:129.22999573px;line-height:125%;font-family:'Gentium Book Basic';letter-spacing:0;word-spacing:0">
    <tspan
       x="807.17999"
       y="-806.64001"
       id="tspan43-8" />
  </text>
  <text
     x="398.22797"
     y="-3586.0117"
     transform="scale(4.0128205,0.24920128)"
     id="text45-7"
     style="font-size:46.95399857px;font-family:Arial;text-anchor:middle" />
  <text
     sodipodi:linespacing="125%"
     x="1388.4399"
     y="-886.64001"
     id="text47-9"
     style="font-size:129.22999573px;line-height:125%;font-family:'Gentium Book Basic';letter-spacing:0;word-spacing:0">
    <tspan
       x="1388.4399"
       y="-886.64001"
       id="tspan49-1" />
  </text>
  <text
     x="543.0672"
     y="-3907.04"
     transform="scale(4.0128205,0.24920128)"
     id="text51-3"
     style="font-size:46.95399857px;font-family:Arial;text-anchor:middle" />
  <text
     sodipodi:linespacing="125%"
     x="-444.35999"
     y="528.08002"
     id="text53-7"
     style="font-size:208.33000183px;line-height:125%;font-family:'Gentium Book Basic';letter-spacing:0;word-spacing:0">
    <tspan
       x="-444.35999"
       y="528.08002"
       id="tspan55-3" />
  </text>
  <path
     style="color:#000000;opacity:0.25"
     d="M 141.5 148.48047 C 85.823653 148.48047 41.001051 193.34144 41 249.01953 L 41 262.98047 L 40.998047 262.98047 C 40.998047 290.83047 52.210625 315.97039 70.390625 334.15039 L 248.24023 512 L 486.01172 512 C 500.40907 512 512 500.40907 512 486.01172 L 512 248.24023 L 441.60938 177.84961 C 423.44763 159.69087 398.33973 148.48572 370.51953 148.48047 L 370.5 148.48047 L 141.5 148.48047 z "
     id="path59" />
  <path
     d="m 370.5,148.48 c 55.679,0 100.5,44.865 100.5,100.54 l 0,13.962 c 0,55.679 -44.823,100.54 -100.5,100.54 l -229,0 C 85.821,363.522 41,318.657 41,262.982 L 41,249.02 C 41,193.341 85.823,148.48 141.5,148.48 l 229.02,0 m -222.03,28.563 c -43.616,0 -78.962,35.35 -78.962,78.962 0,43.616 35.35,78.962 78.962,78.962 43.616,0 78.962,-35.35 78.962,-78.962 0,-43.616 -35.35,-78.962 -78.962,-78.962"
     inkscape:connector-curvature="0"
     id="path91"
     style="color:#000000;fill:#ffffff" />
</svg>

<?xml version="1.0" encoding="UTF-8" standalone="no"?>
<!-- Created with Inkscape (http://www.inkscape.org/) -->
<svg id="svg2" xmlns:rdf="http://www.w3.org/1999/02/22-rdf-syntax-ns#" xmlns="http://www.w3.org/2000/svg" height="100%" width="100%" version="1.1" xmlns:cc="http://creativecommons.org/ns#" xmlns:dc="http://purl.org/dc/elements/1.1/" viewBox="0 0 512 512">
 <metadata id="metadata241">
  <rdf:RDF>
   <cc:Work rdf:about="">
    <dc:format>image/svg+xml</dc:format>
    <dc:type rdf:resource="http://purl.org/dc/dcmitype/StillImage"/>
    <dc:title/>
   </cc:Work>
  </rdf:RDF>
 </metadata>
 <text id="text11" style="word-spacing:0;letter-spacing:0" font-size="129.23px" line-height="125%" y="218.89999" x="189.84" font-family="Gentium Book Basic">
  <tspan id="tspan13" y="218.89999" x="189.84"/>
 </text>
 <text id="text15" style="text-anchor:middle" transform="scale(4.0128 .2492)" font-size="46.954px" y="529.23999" x="244.39" font-family="Arial"/>
 <text id="text17" style="word-spacing:0;letter-spacing:0" font-size="129.23px" line-height="125%" y="138.89999" x="771.10999" font-family="Gentium Book Basic">
  <tspan id="tspan19" y="138.89999" x="771.10999"/>
 </text>
 <text id="text21" style="text-anchor:middle" transform="scale(4.0128 .2492)" font-size="46.954px" y="208.22" x="389.23999" font-family="Arial"/>
 <text id="text23" style="word-spacing:0;letter-spacing:0" font-size="129.23px" line-height="125%" y="-42.360001" x="-300.47" font-family="Gentium Book Basic">
  <tspan id="tspan25" y="-42.360001" x="-300.47"/>
 </text>
 <text id="text27" style="text-anchor:middle" transform="scale(4.0128 .2492)" font-size="46.954px" y="-519.14001" x="122.2" font-family="Arial"/>
 <text id="text29" style="word-spacing:0;letter-spacing:0" font-size="129.23px" line-height="125%" y="-258.82999" x="797.58002" font-family="Gentium Book Basic">
  <tspan id="tspan31" y="-258.82999" x="797.58002"/>
 </text>
 <text id="text33" style="text-anchor:middle" transform="scale(4.0128 .2492)" font-size="46.954px" y="-1387.8101" x="395.84" font-family="Arial"/>
 <text id="text35" style="word-spacing:0;letter-spacing:0" font-size="129.23px" line-height="125%" y="-338.84" x="1378.85" font-family="Gentium Book Basic">
  <tspan id="tspan37" y="-338.84" x="1378.85"/>
 </text>
 <text id="text39" style="text-anchor:middle" transform="scale(4.0128 .2492)" font-size="46.954px" y="-1708.84" x="540.69" font-family="Arial"/>
 <text id="text41" style="word-spacing:0;letter-spacing:0" font-size="129.23px" line-height="125%" y="-811.23999" x="989.72998" font-family="Gentium Book Basic">
  <tspan id="tspan43" y="-811.23999" x="989.72998"/>
 </text>
 <text id="text45" style="text-anchor:middle" transform="scale(4.0128 .2492)" font-size="46.954px" y="-3604.5" x="443.72" font-family="Arial"/>
 <text id="text47" style="word-spacing:0;letter-spacing:0" font-size="129.23px" line-height="125%" y="-891.23999" x="1570.99" font-family="Gentium Book Basic">
  <tspan id="tspan49" y="-891.23999" x="1570.99"/>
 </text>
 <text id="text51" style="text-anchor:middle" transform="scale(4.0128 .2492)" font-size="46.954px" y="-3925.52" x="588.57001" font-family="Arial"/>
 <text id="text53" style="word-spacing:0;letter-spacing:0" font-size="208.33px" line-height="125%" y="523.47998" x="-261.81" font-family="Gentium Book Basic">
  <tspan id="tspan55" y="523.47998" x="-261.81"/>
 </text>
 <text id="text11-2" font-size="129.23px" style="word-spacing:0;letter-spacing:0" line-height="125%" y="179.00999" x="88.589996" font-family="&apos;Gentium Book Basic&apos;">
  <tspan id="tspan13-7" y="179.00999" x="88.589996"/>
 </text>
 <text id="text15-5" style="text-anchor:middle" transform="scale(4.0128 .24920)" font-size="46.954px" y="369.18811" x="219.15887" font-family="Arial"/>
 <text id="text17-2" font-size="129.23px" style="word-spacing:0;letter-spacing:0" line-height="125%" y="99.010002" x="669.85999" font-family="&apos;Gentium Book Basic&apos;">
  <tspan id="tspan19-9" y="99.010002" x="669.85999"/>
 </text>
 <text id="text21-5" style="text-anchor:middle" transform="scale(4.0128 .24920)" font-size="46.954px" y="48.159752" x="364.00815" font-family="Arial"/>
 <text id="text23-9" font-size="129.23px" style="word-spacing:0;letter-spacing:0" line-height="125%" y="-82.25" x="-401.72" font-family="&apos;Gentium Book Basic&apos;">
  <tspan id="tspan25-2" y="-82.25" x="-401.72"/>
 </text>
 <text id="text27-3" style="text-anchor:middle" transform="scale(4.0128 .24920)" font-size="46.954px" y="-679.18652" x="96.969505" font-family="Arial"/>
 <text id="text29-4" font-size="129.23px" style="word-spacing:0;letter-spacing:0" line-height="125%" y="-298.72" x="696.33002" font-family="&apos;Gentium Book Basic&apos;">
  <tspan id="tspan31-9" y="-298.72" x="696.33002"/>
 </text>
 <text id="text33-9" style="text-anchor:middle" transform="scale(4.0128 .24920)" font-size="46.954px" y="-1547.8521" x="370.60809" font-family="Arial"/>
 <text id="text35-4" font-size="129.23px" style="word-spacing:0;letter-spacing:0" line-height="125%" y="-378.73001" x="1277.6" font-family="&apos;Gentium Book Basic&apos;">
  <tspan id="tspan37-1" y="-378.73001" x="1277.6"/>
 </text>
 <text id="text39-8" style="text-anchor:middle" transform="scale(4.0128 .24920)" font-size="46.954px" y="-1868.8905" x="515.4574" font-family="Arial"/>
 <text id="text41-3" font-size="129.23px" style="word-spacing:0;letter-spacing:0" line-height="125%" y="-851.13" x="888.47998" font-family="&apos;Gentium Book Basic&apos;">
  <tspan id="tspan43-6" y="-851.13" x="888.47998"/>
 </text>
 <text id="text45-6" style="text-anchor:middle" transform="scale(4.0128 .24920)" font-size="46.954px" y="-3764.5308" x="418.48785" font-family="Arial"/>
 <text id="text47-0" font-size="129.23px" style="word-spacing:0;letter-spacing:0" line-height="125%" y="-931.13" x="1469.74" font-family="&apos;Gentium Book Basic&apos;">
  <tspan id="tspan49-7" y="-931.13" x="1469.74"/>
 </text>
 <text id="text51-6" style="text-anchor:middle" transform="scale(4.0128 .24920)" font-size="46.954px" y="-4085.5591" x="563.33716" font-family="Arial"/>
 <text id="text53-2" font-size="208.33px" style="word-spacing:0;letter-spacing:0" line-height="125%" y="483.59" x="-363.06" font-family="&apos;Gentium Book Basic&apos;">
  <tspan id="tspan55-9" y="483.59" x="-363.06"/>
 </text>
 <rect id="rect9" rx="25.988" height="512" width="512" y="0" x="0" fill="#ae4a32"/>
 <text id="text11-0" font-size="129.23px" style="word-spacing:0;letter-spacing:0" line-height="125%" y="223.5" x="7.2849998" font-family="&apos;Gentium Book Basic&apos;">
  <tspan id="tspan13-2" y="223.5" x="7.2849998"/>
 </text>
 <text id="text15-3" style="text-anchor:middle" transform="scale(4.0128 .24920)" font-size="46.954px" y="547.70721" x="198.89897" font-family="Arial"/>
 <text id="text17-1" font-size="129.23px" style="word-spacing:0;letter-spacing:0" line-height="125%" y="143.5" x="588.56" font-family="&apos;Gentium Book Basic&apos;">
  <tspan id="tspan19-4" y="143.5" x="588.56"/>
 </text>
 <text id="text21-6" style="text-anchor:middle" transform="scale(4.0128 .24920)" font-size="46.954px" y="226.67883" x="343.74823" font-family="Arial"/>
 <text id="text23-8" font-size="129.23px" style="word-spacing:0;letter-spacing:0" line-height="125%" y="-37.759998" x="-483.01999" font-family="&apos;Gentium Book Basic&apos;">
  <tspan id="tspan25-9" y="-37.759998" x="-483.01999"/>
 </text>
 <text id="text27-8" style="text-anchor:middle" transform="scale(4.0128 .24920)" font-size="46.954px" y="-500.66745" x="76.70961" font-family="Arial"/>
 <text id="text29-9" font-size="129.23px" style="word-spacing:0;letter-spacing:0" line-height="125%" y="-254.23" x="615.03003" font-family="&apos;Gentium Book Basic&apos;">
  <tspan id="tspan31-6" y="-254.23" x="615.03003"/>
 </text>
 <text id="text33-94" style="text-anchor:middle" transform="scale(4.0128 .24920)" font-size="46.954px" y="-1369.333" x="350.34821" font-family="Arial"/>
 <text id="text35-1" font-size="129.23px" style="word-spacing:0;letter-spacing:0" line-height="125%" y="-334.23999" x="1196.3" font-family="&apos;Gentium Book Basic&apos;">
  <tspan id="tspan37-3" y="-334.23999" x="1196.3"/>
 </text>
 <text id="text39-3" style="text-anchor:middle" transform="scale(4.0128 .24920)" font-size="46.954px" y="-1690.3713" x="495.18747" font-family="Arial"/>
 <text id="text41-1" font-size="129.23px" style="word-spacing:0;letter-spacing:0" line-height="125%" y="-806.64001" x="807.17999" font-family="&apos;Gentium Book Basic&apos;">
  <tspan id="tspan43-8" y="-806.64001" x="807.17999"/>
 </text>
 <text id="text45-7" style="text-anchor:middle" transform="scale(4.0128 .24920)" font-size="46.954px" y="-3586.0117" x="398.22797" font-family="Arial"/>
 <text id="text47-9" font-size="129.23px" style="word-spacing:0;letter-spacing:0" line-height="125%" y="-886.64001" x="1388.4399" font-family="&apos;Gentium Book Basic&apos;">
  <tspan id="tspan49-1" y="-886.64001" x="1388.4399"/>
 </text>
 <text id="text51-3" style="text-anchor:middle" transform="scale(4.0128 .24920)" font-size="46.954px" y="-3907.04" x="543.0672" font-family="Arial"/>
 <text id="text53-7" font-size="208.33px" style="word-spacing:0;letter-spacing:0" line-height="125%" y="528.08002" x="-444.35999" font-family="&apos;Gentium Book Basic&apos;">
  <tspan id="tspan55-3" y="528.08002" x="-444.35999"/>
 </text>
 <path id="path59" opacity=".25" style="color:#000000" d="m141.5 148.48c-55.676 0-100.5 44.86-100.5 100.54v13.96h-0.002c0 27.85 11.213 52.99 29.393 71.17l177.85 177.85h237.77c14.4 0 25.99-11.59 25.99-25.99v-237.77l-70.39-70.39c-18.16-18.16-43.27-29.36-71.09-29.37h-0.02-229z"/>
 <path id="path91" style="color:#000000" d="m370.5 148.48c55.679 0 100.5 44.865 100.5 100.54v13.962c0 55.679-44.823 100.54-100.5 100.54h-229c-55.679 0-100.5-44.86-100.5-100.54v-13.96c0-55.68 44.823-100.54 100.5-100.54h229.02m-222.03 28.563c-43.616 0-78.962 35.35-78.962 78.962 0 43.616 35.35 78.962 78.962 78.962 43.616 0 78.962-35.35 78.962-78.962 0-43.616-35.35-78.962-78.962-78.962" fill="#fff"/>
</svg>
